X:504
T:Love Waltz,The. RH.504
R:Waltz
S:Rev.R.Harrison’s MS,c1815,Cumbria
O:England
A:Temple Sowerby,Cumbria
Z:vmp.Simon Wilson. Review PJH, 2008.
M:3/8
L:1/16
Q:3/8=50
K:G
dg|b2b2a2|{a}g4e2|d>edBge|d>edBdg|\
b2b2a2|g4e2|d>edcBA|G4:|!
A2|B>cB2A2|G>AG2B2|d>edBge|e2{fe}d2 G2|\
B>cBBAA|G>AGABc|dbagfe|{e}d4||!
b2|{b}c’4a2|fa/f/ d2c2|Bddgg2|dggbb2|\
c’2c’2e’2|b2b2d’2|gbagfe|{e}e4||!
B>G|G2G2A2|B4c2|d>edced|d>edcBA|\
G2G2A2|B4d2|degfed|d4|]

